X: 1
T: Farsgubben
R: Polska
C: P\"ar N\"asbom
C: played by P\"ar och Torbj\"orn N\"asbom
S: https://www.facebook.com/100063056928699/videos/307055817686543
Z: G Campbell Kaynor 2022-8-3 (facebook message)
M: 3/4
L: 1/4
Q: 1/4=100
K: Bm
% = = = = = = = = = =
V: 1 staves=2
|:\
f b>g | f c/d//c// B/>F/ | B//c//d/ e/f/- f/d/ | d/c//B// c2 |\
f b>g | f c/d//c// B/>F/ | B//c//d/ e/f/- f/e/ | c/d/ B2 :|
|: d d/c//B// c/>F/ | !p!d d/c//B// c/>d/ | !f!e e/>f/ g/a/ |\
.f f2 | g g/>f/ e/g/ | b f/d/ B/>c/ | d f/>e/ c/>d/ | BB2 :|
|: f a>b | a/g//f// e/c/ A | d f>g | f/e//d// c/^A/ F- |\
F/>^A/ c/e/ d/>c/ | B/f/ e/g/ f/^g//^a// | b f/>e/ c/>e/ | d/c/ B2 :|
% = = = = = = = = = =
V: 2
|:\
[FB,] [EG,]>c | ^A F/G//E// D/>C/ | D//F//B/ c/d/- d/B/ | B/^A//^G// ^A2 |
[FB,] [EG,]>c | ^A F/G//E// D/>C/ | D//F//B/ c/d/- d/B/ | ^A/F//E// D2 :|
|: B B/^A//^G// ^A/>F/ | !p!B B/^A//^G// ^A/>B/ | !f!c c/>d/ e/f/ |
.dd2 | e e/>d/ c/e/ | f d/B/ F/>^A/ | B d/>c/ ^A/>F/ | ED2 :|
|: [dA] d>d | d/c//B// c/A/ E | B B>d | d/c//B// ^A/F/ C- |
C/>F/ ^A/c/ B/>A/ | F/d/ c/e/ d/>e/ | f d/>c/ ^A/>F/ | F/E/ D2 :|
